X: 25537
T: Marian's Trip To Collooney
R: jig
M: 6/8
K: Edorian
|:AB/c/d ~e3|BAG ~g3|AB/c/d ~e3|dBG ~d3|
AB/c/d ~e3|BAG gab|~a3 gag|1 ede ~g3:|2 ede g2d||
|:B2e ede|BGA ~B3|B2e ede|BAG ~A3|
B2e ede|BGA ~B3|AGE GED|GED ~E3:|

